frontend/public/svg/logos/pinterest.svg

<svg width="108" height="140" viewBox="0 0 108 140" fill="none" xmlns="http://www.w3.org/2000/svg">
<g clip-path="url(#clip0)">
<path d="M95.5903 20.8598C89.8841 12.5088 81.565 6.29059 71.9398 3.18257C61.6448 -0.272388 50.4207 -0.187051 39.4795 3.42806C28.7404 7.03753 19.2568 13.6415 12.1463 22.4618C2.83291 34.058 -0.586618 47.9279 1.68956 64.8726C2.17428 67.6139 2.98146 70.2878 4.09434 72.839L4.39896 73.6266C4.55145 74.0565 4.78908 74.4516 5.09776 74.787C5.40644 75.123 5.77977 75.3935 6.19531 75.5812C6.57907 75.7308 6.98971 75.7984 7.40111 75.7807C7.81254 75.763 8.21566 75.6593 8.58505 75.4775C10.407 74.6584 10.0986 73.0674 9.89772 72.0153C9.86753 71.861 9.838 71.7055 9.81306 71.5519C9.61615 70.3554 9.39431 69.1596 9.17181 67.9631C8.57737 65.1343 8.17543 62.2681 7.96875 59.3847C6.82345 35.2577 21.507 15.7056 45.38 9.57479C62.0943 5.28106 76.1253 9.4827 87.0888 22.0542C92.6637 28.579 96.6345 36.3181 98.683 44.652C100.928 53.2211 99.8073 62.3242 95.5522 70.0935C91.2972 77.8626 84.2304 83.7093 75.8011 86.4324C71.8893 87.6991 67.8738 88.6213 63.8014 89.189C61.4907 89.4338 59.1637 89.4857 56.8443 89.3446C56.0219 89.3183 55.1778 89.2921 54.3265 89.2789C54.3639 89.0656 54.3994 88.8602 54.4335 88.6607C54.5773 87.833 54.702 87.115 54.8431 86.4003C56.6907 77.0737 58.5986 66.1982 57.8399 55.1586C57.6156 50.9573 56.7663 46.8131 55.3202 42.8621C53.9347 39.2779 51.7103 36.9485 48.8927 36.1248C45.9667 35.2715 42.6838 36.096 39.3955 38.5113C35.2947 41.5226 32.5309 44.9021 30.9412 48.8506C29.2347 53.0827 27.4744 57.4593 26.4591 61.9578C23.2568 76.1345 28.7661 88.2478 41.5732 95.1906C41.773 95.3173 41.9574 95.4669 42.1226 95.6356L42.1744 95.6841C41.8358 96.9896 41.5028 98.2898 41.1755 99.5848C40.3879 102.686 39.5734 105.892 38.6696 108.994C37.5433 112.861 36.3443 116.779 35.1852 120.569C34.1206 124.047 33.0192 127.639 31.9796 131.187C30.9484 134.696 32.0636 137.664 34.7532 138.573C35.2753 138.755 35.8236 138.85 36.3764 138.854C38.6079 138.854 40.4758 137.178 41.5483 134.113C42.2703 132.051 42.9063 129.926 43.5213 127.871L43.7726 127.031C45.8152 120.225 47.8508 113.422 49.8799 106.623L52.2748 98.6101C53.5875 98.5222 54.9251 98.4552 56.2247 98.3909C59.5387 98.2826 62.845 98.001 66.1295 97.5462C80.1965 95.3415 89.9491 90.4361 96.8196 82.1098C104.95 72.2575 108.388 61.8289 107.33 50.2229C106.445 40.557 102.715 31.2286 95.5903 20.8598ZM48.3216 54.092C48.0368 60.5793 47.4862 67.461 46.6362 75.1296C46.3304 77.8948 45.7679 80.5825 45.1719 83.4283C44.9652 84.4174 44.7571 85.4111 44.5602 86.4107C37.4888 82.8934 33.1517 74.4359 34.614 66.76C35.5887 61.6408 37.5178 56.57 39.2499 52.2217C40.451 49.2026 42.794 46.7679 46.2168 44.9715C47.8324 47.7258 48.5668 50.9083 48.3216 54.092Z" fill="black"/>
</g>
<defs>
<clipPath id="clip0">
<rect width="106.983" height="138.487" fill="white" transform="translate(0.934082 0.554199)"/>
</clipPath>
</defs>
</svg>

<svg xmlns="http://www.w3.org/2000/svg" width="108" height="140" fill="none" viewBox="0 0 108 140"><g clip-path="url(#a)"><path fill="#000" d="M95.59 20.86A45.62 45.62 0 0 0 71.94 3.183c-10.295-3.455-21.52-3.37-32.46.245a59.43 59.43 0 0 0-27.334 19.034C2.833 34.058-.587 47.928 1.69 64.872a35.3 35.3 0 0 0 2.404 7.967l.305.788a3.4 3.4 0 0 0 1.796 1.954 2.97 2.97 0 0 0 2.39-.103c1.822-.82 1.514-2.41 1.313-3.463q-.046-.232-.085-.463a176 176 0 0 0-.641-3.589 64 64 0 0 1-1.203-8.578C6.823 35.258 21.507 15.705 45.38 9.575c16.714-4.294 30.745-.092 41.709 12.48a55 55 0 0 1 11.594 22.597 34.67 34.67 0 0 1-22.882 41.78 70.6 70.6 0 0 1-12 2.757 42 42 0 0 1-6.957.156 143 143 0 0 0-2.517-.066l.107-.618c.143-.828.268-1.546.41-2.26 1.847-9.327 3.755-20.203 2.996-31.242a42.3 42.3 0 0 0-2.52-12.297c-1.385-3.584-3.61-5.913-6.427-6.737-2.926-.853-6.21-.029-9.498 2.386-4.1 3.012-6.864 6.391-8.454 10.34-1.706 4.232-3.467 8.608-4.482 13.107-3.202 14.177 2.307 26.29 15.114 33.233q.3.19.55.445l.051.048a648 648 0 0 0-.998 3.9c-.788 3.102-1.603 6.308-2.506 9.41-1.127 3.867-2.326 7.785-3.485 11.575-1.064 3.478-2.166 7.07-3.205 10.618-1.032 3.509.084 6.477 2.773 7.386a5 5 0 0 0 1.623.281c2.232 0 4.1-1.676 5.172-4.741.722-2.062 1.358-4.187 1.973-6.242l.252-.84q3.063-10.21 6.107-20.408l2.395-8.013a228 228 0 0 1 3.95-.22 94 94 0 0 0 9.904-.844c14.067-2.205 23.82-7.11 30.69-15.436 8.131-9.853 11.569-20.281 10.511-31.887-.885-9.666-4.615-18.994-11.74-29.363M48.322 54.092c-.285 6.487-.836 13.369-1.686 21.038-.306 2.765-.868 5.453-1.464 8.298-.207.99-.415 1.983-.612 2.983-7.071-3.518-11.408-11.975-9.946-19.651.975-5.12 2.904-10.19 4.636-14.538 1.201-3.02 3.544-5.454 6.967-7.25a15.65 15.65 0 0 1 2.105 9.12"/></g><defs><clipPath id="a"><path fill="#fff" d="M.934.554h106.983v138.487H.934z"/></clipPath></defs></svg>
